src/assets/scroll-down.svg

<svg width="196" height="196" viewBox="0 0 196 196" fill="none" xmlns="http://www.w3.org/2000/svg">
<path d="M41.671 85.7039C41.3235 87.3422 40.3496 88.2388 39.0619 88.0504L38.9844 88.039L39.2732 86.6777L39.3278 86.6793C39.882 86.702 40.3369 86.2045 40.5041 85.4164C40.6733 84.6187 40.431 84.0432 39.9056 83.9318L39.9009 83.9308C39.4328 83.8314 39.1268 84.1209 38.7687 84.9384L38.4713 85.6341C37.9103 86.9376 37.1148 87.4876 36.0783 87.2677L36.0735 87.2667C34.8125 86.9992 34.2144 85.7243 34.5387 84.1958C34.8771 82.6005 35.8825 81.7905 37.1052 81.98L37.1969 81.9945L36.9081 83.3558L36.8498 83.3484C36.2949 83.3055 35.8599 83.7324 35.7089 84.4441C35.5566 85.1855 35.8015 85.7016 36.2935 85.806L36.2983 85.807C36.733 85.8992 37.0611 85.5995 37.3869 84.84L37.69 84.1406C38.2826 82.7589 39.008 82.2339 40.0922 82.4639L40.097 82.4649C41.4201 82.7456 42.0399 83.9652 41.671 85.7039Z" fill="white"/>
<path d="M45.9174 76.3703C45.1367 78.2772 43.3722 78.953 41.2709 78.0928L41.2664 78.091C39.1652 77.2308 38.392 75.5108 39.1708 73.6084C39.8182 72.0268 41.2812 71.3014 42.7158 71.7409L42.7583 71.7531L42.2144 73.0816L42.1302 73.0682C41.3488 72.9277 40.6606 73.2686 40.3276 74.082C39.9003 75.1258 40.467 76.1387 41.8317 76.6973L41.8362 76.6992C43.2099 77.2616 44.3332 76.9405 44.7606 75.8967C45.0824 75.1104 44.8562 74.3741 44.1557 73.8816L44.1142 73.854L44.658 72.5255L44.7059 72.5504C46.0414 73.2448 46.563 74.7932 45.9174 76.3703Z" fill="white"/>
<path d="M49.172 69.4295L43.2328 65.6387L44.7985 63.1856C45.6496 61.8521 46.8619 61.5137 48.0555 62.2755L48.0638 62.2808C48.8458 62.7799 49.2308 63.6107 49.0698 64.4347L52.2062 64.6756L51.3078 66.0833L48.4485 65.8165L47.8127 66.8126L49.9654 68.1865L49.172 69.4295ZM46.8702 66.211L47.5558 65.1367C47.9499 64.5194 47.8365 63.9256 47.252 63.5526L47.2438 63.5473C46.6758 63.1848 46.064 63.3446 45.6726 63.9579L44.9975 65.0157L46.8702 66.211Z" fill="white"/>
<path d="M56.8571 59.4184C55.4329 60.9545 53.5189 60.9578 51.8753 59.434L51.8682 59.4274C50.2247 57.9036 50.0936 55.991 51.5111 54.462C52.9319 52.9295 54.8493 52.9226 56.4892 54.4431L56.4964 54.4497C58.1399 55.9735 58.2812 57.8823 56.8571 59.4184ZM55.9404 58.5685C56.7371 57.7092 56.5445 56.5452 55.4739 55.5526L55.4668 55.5459C54.389 54.5467 53.2145 54.4633 52.4278 55.3119C51.6443 56.1569 51.8093 57.322 52.8907 58.3245L52.8978 58.3312C53.9792 59.3337 55.1536 59.4172 55.9404 58.5685Z" fill="white"/>
<path d="M62.5611 53.9566L58.3325 48.3206L59.5121 47.4357L63.011 52.0991L65.4755 50.25L66.2051 51.2226L62.5611 53.9566Z" fill="white"/>
<path d="M70.9249 48.4211L67.7706 42.1206L69.0892 41.4605L71.6992 46.6737L74.4543 45.2944L74.9986 46.3816L70.9249 48.4211Z" fill="white"/>
<path d="M88.7291 42.3496L87.9898 35.3426L90.6653 35.0603C92.7631 34.839 94.1378 35.9558 94.372 38.1749L94.373 38.1846C94.6077 40.4086 93.5072 41.8455 91.4046 42.0673L88.7291 42.3496ZM90.0674 40.9809L91.1017 40.8718C92.4128 40.7335 93.0378 39.8623 92.8779 38.3473L92.8769 38.3376C92.7227 36.876 91.9049 36.1521 90.6181 36.2879L89.5838 36.397L90.0674 40.9809Z" fill="white"/>
<path d="M102.051 42.042C99.9623 41.8863 98.7664 40.3919 98.933 38.1569L98.9337 38.1471C99.1003 35.9121 100.514 34.6171 102.593 34.7721C104.677 34.9274 105.878 36.4222 105.712 38.6524L105.711 38.6621C105.544 40.8971 104.14 42.1977 102.051 42.042ZM102.144 40.7954C103.313 40.8825 104.103 40.0062 104.211 38.5503L104.212 38.5406C104.321 37.0749 103.654 36.1047 102.5 36.0187C101.351 35.933 100.543 36.7884 100.433 38.2589L100.433 38.2687C100.323 39.7392 100.99 40.7094 102.144 40.7954Z" fill="white"/>
<path d="M109.273 42.9392L109.237 35.6507L110.717 36.0346L110.526 41.2012L110.554 41.2085L113.08 36.6479L114.332 36.9729L114.321 42.1861L114.35 42.1935L116.7 37.5874L118.18 37.9713L114.599 44.3215L113.205 43.9597L113.139 39.0644L113.11 39.057L110.667 43.301L109.273 42.9392Z" fill="white"/>
<path d="M118.269 45.651L121.228 39.2566L122.398 39.798L123.364 45.2917L123.39 45.304L125.314 41.1474L126.648 41.7647L123.688 48.159L122.527 47.6217L121.567 42.093L121.541 42.0807L119.603 46.2682L118.269 45.651Z" fill="white"/>
<path d="M137.228 58.4799C136.052 57.2872 135.84 55.9806 136.707 55.0096L136.759 54.9513L137.736 55.9422L137.705 55.9869C137.38 56.4369 137.545 57.0907 138.11 57.6644C138.683 58.245 139.297 58.3599 139.679 57.9828L139.683 57.9793C140.023 57.6434 139.95 57.2285 139.465 56.4793L139.049 55.8479C138.27 54.6616 138.249 53.6947 139.004 52.9508L139.007 52.9473C139.925 52.0423 141.318 52.2455 142.415 53.3582C143.56 54.5195 143.683 55.8048 142.851 56.7208L142.788 56.7894L141.811 55.7985L141.85 55.7538C142.191 55.3143 142.074 54.7161 141.564 54.1981C141.029 53.6626 140.463 53.5826 140.105 53.9357L140.101 53.9391C139.785 54.2511 139.854 54.6901 140.309 55.3804L140.726 56.0186C141.552 57.2744 141.591 58.1689 140.801 58.9471L140.798 58.9506C139.835 59.9001 138.476 59.7455 137.228 58.4799Z" fill="white"/>
<path d="M143.672 66.333C142.511 64.6309 142.919 62.786 144.794 61.5062L144.798 61.5035C146.674 60.2237 148.535 60.5259 149.694 62.2239C150.657 63.6356 150.456 65.2562 149.299 66.2113L149.266 66.2401L148.457 65.0543L148.514 64.9914C149.062 64.4166 149.157 63.6545 148.661 62.9285C148.025 61.9968 146.868 61.9118 145.65 62.743L145.646 62.7457C144.42 63.5824 144.069 64.6967 144.705 65.6284C145.183 66.3302 145.923 66.547 146.72 66.2337L146.765 66.2142L147.575 67.4L147.527 67.4263C146.212 68.1583 144.633 67.7406 143.672 66.333Z" fill="white"/>
<path d="M147.672 72.8726L154.107 70.0042L155.292 72.6623C155.936 74.1073 155.551 75.3055 154.257 75.882L154.248 75.8859C153.401 76.2636 152.495 76.1273 151.896 75.5389L149.967 78.0238L149.288 76.4985L151.085 74.2592L150.604 73.1799L148.272 74.2195L147.672 72.8726ZM151.626 72.7247L152.145 73.8887C152.443 74.5577 153.001 74.7901 153.634 74.5078L153.643 74.5039C154.258 74.2296 154.462 73.6309 154.166 72.9664L153.655 71.8202L151.626 72.7247Z" fill="white"/>
<path d="M151.793 84.8015C151.296 82.7667 152.347 81.1675 154.524 80.6353L154.534 80.6329C156.711 80.1007 158.379 81.045 158.875 83.0703C159.371 85.1004 158.32 86.7043 156.148 87.2354L156.138 87.2377C153.961 87.7699 152.29 86.8363 151.793 84.8015ZM153.007 84.5047C153.286 85.643 154.363 86.1235 155.781 85.7768L155.791 85.7745C157.218 85.4255 157.935 84.4913 157.66 83.3672C157.387 82.2478 156.323 81.7437 154.891 82.0938L154.881 82.0961C153.449 82.4463 152.732 83.3805 153.007 84.5047Z" fill="white"/>
<path d="M153.209 92.5709L160.242 92.1467L160.331 93.6186L154.511 93.9696L154.697 97.0451L153.483 97.1183L153.209 92.5709Z" fill="white"/>
<path d="M153.221 102.601L160.217 103.439L160.041 104.903L154.253 104.209L153.886 107.269L152.679 107.124L153.221 102.601Z" fill="white"/>
<path d="M148.48 120.804L154.735 124.047L153.497 126.436C152.526 128.309 150.836 128.841 148.855 127.814L148.847 127.809C146.861 126.78 146.268 125.07 147.242 123.193L148.48 120.804ZM148.885 122.675L148.406 123.599C147.799 124.769 148.182 125.77 149.535 126.472L149.543 126.476C150.848 127.153 151.903 126.869 152.498 125.72L152.977 124.797L148.885 122.675Z" fill="white"/>
<path d="M141.398 132.092C142.678 130.434 144.584 130.26 146.358 131.63L146.365 131.636C148.139 133.006 148.441 134.899 147.166 136.549C145.888 138.203 143.979 138.382 142.21 137.014L142.202 137.008C140.429 135.638 140.117 133.75 141.398 132.092ZM142.387 132.856C141.67 133.784 141.966 134.926 143.122 135.818L143.129 135.824C144.292 136.723 145.47 136.701 146.177 135.785C146.882 134.873 146.613 133.728 145.446 132.826L145.438 132.82C144.271 131.918 143.094 131.941 142.387 132.856Z" fill="white"/>
<path d="M136.67 137.625L142.773 141.61L141.637 142.634L137.43 139.628L137.409 139.648L139.824 144.268L138.862 145.134L134.518 142.253L134.496 142.272L137.045 146.772L135.91 147.795L132.582 141.309L133.652 140.344L137.774 142.986L137.796 142.966L135.6 138.589L136.67 137.625Z" fill="white"/>
<path d="M129.451 143.639L133.158 149.631L132.061 150.309L126.945 148.088L126.92 148.104L129.329 151.999L128.079 152.772L124.373 146.78L125.461 146.107L130.604 148.351L130.629 148.336L128.201 144.412L129.451 143.639Z" fill="white"/>
<path d="M108.3 152.394C109.943 152.069 111.15 152.613 111.483 153.871L111.503 153.946L110.138 154.216L110.118 154.165C109.921 153.647 109.285 153.424 108.495 153.58C107.695 153.738 107.261 154.187 107.365 154.714L107.365 154.718C107.458 155.188 107.845 155.355 108.737 155.363L109.494 155.363C110.913 155.367 111.731 155.882 111.936 156.922L111.937 156.927C112.187 158.191 111.25 159.242 109.717 159.545C108.117 159.861 106.977 159.255 106.671 158.056L106.648 157.966L108.013 157.696L108.029 157.753C108.208 158.28 108.771 158.512 109.485 158.371C110.227 158.22 110.605 157.792 110.508 157.298L110.507 157.294C110.421 156.858 110.016 156.674 109.19 156.673L108.427 156.669C106.924 156.667 106.156 156.206 105.941 155.119L105.941 155.114C105.679 153.787 106.557 152.738 108.3 152.394Z" fill="white"/>
<path d="M98.1962 153.446C100.256 153.414 101.571 154.771 101.606 157.041L101.606 157.046C101.641 159.316 100.364 160.703 98.3081 160.735C96.5993 160.761 95.3573 159.701 95.1977 158.209L95.1921 158.165L96.6275 158.143L96.6483 158.226C96.8262 159 97.4101 159.499 98.2889 159.485C99.4167 159.468 100.125 158.549 100.103 157.074L100.103 157.069C100.08 155.585 99.3431 154.678 98.2154 154.696C97.3658 154.709 96.7777 155.206 96.6001 156.044L96.5911 156.093L95.1557 156.115L95.1598 156.061C95.2735 154.56 96.4923 153.472 98.1962 153.446Z" fill="white"/>
<path d="M90.5349 153.181L89.3835 160.132L86.5124 159.657C84.9517 159.398 84.164 158.416 84.3954 157.019L84.397 157.01C84.5486 156.094 85.1613 155.414 85.9823 155.238L84.9711 152.259L86.6186 152.532L87.4971 155.266L88.6628 155.459L89.0801 152.94L90.5349 153.181ZM88.4801 156.563L87.2228 156.354C86.5002 156.235 85.9988 156.572 85.8855 157.256L85.8839 157.266C85.7738 157.931 86.1612 158.43 86.879 158.549L88.117 158.754L88.4801 156.563Z" fill="white"/>
<path d="M78.3089 150.049C80.2811 150.755 81.0364 152.514 80.2812 154.624L80.2779 154.633C79.5227 156.743 77.8155 157.615 75.8525 156.913C73.8848 156.209 73.125 154.448 73.8785 152.343L73.8818 152.333C74.637 150.223 76.3367 149.343 78.3089 150.049ZM77.8877 151.226C76.7843 150.831 75.7897 151.466 75.2978 152.84L75.2945 152.849C74.7992 154.233 75.1841 155.346 76.2737 155.736C77.3586 156.124 78.3651 155.515 78.862 154.126L78.8652 154.117C79.3621 152.729 78.9772 151.616 77.8877 151.226Z" fill="white"/>
<path d="M71.0448 146.951L67.5243 153.054L66.2469 152.317L69.1599 147.267L66.4911 145.727L67.0986 144.674L71.0448 146.951Z" fill="white"/>
<path d="M62.6676 141.435L58.1139 146.812L56.9886 145.859L60.7565 141.41L58.4054 139.419L59.1912 138.491L62.6676 141.435Z" fill="white"/>
<path d="M50.0872 127.45L43.9346 130.884L42.6234 128.535C41.5955 126.693 42.0821 124.99 44.0306 123.902L44.0391 123.897C45.9919 122.808 47.7456 123.255 48.776 125.101L50.0872 127.45ZM48.3026 126.758L47.7957 125.849C47.1532 124.698 46.1066 124.466 44.7763 125.208L44.7678 125.213C43.4844 125.929 43.1402 126.966 43.7708 128.096L44.2776 129.004L48.3026 126.758Z" fill="white"/>
<path d="M44.5684 115.321C45.2462 117.303 44.3421 118.99 42.2215 119.715L42.2122 119.719C40.0916 120.444 38.3452 119.653 37.6706 117.68C36.9943 115.703 37.8968 114.011 40.0129 113.287L40.0221 113.284C42.1427 112.559 43.8906 113.339 44.5684 115.321ZM43.3856 115.726C43.0064 114.617 41.8902 114.235 40.5087 114.707L40.4995 114.71C39.1089 115.186 38.4789 116.181 38.8533 117.276C39.2262 118.366 40.3303 118.773 41.7256 118.296L41.7348 118.292C43.1301 117.815 43.7601 116.821 43.3856 115.726Z" fill="white"/>
<path d="M42.5551 108.328L35.8671 111.225L35.6387 109.714L40.4645 107.859L40.4601 107.83L35.2738 107.3L35.0805 106.021L39.8785 103.982L39.8741 103.953L34.7149 103.602L34.4865 102.091L41.7328 102.887L41.948 104.311L37.4727 106.296L37.4771 106.325L42.3399 106.904L42.5551 108.328Z" fill="white"/>
<path d="M41.513 98.9901L34.4702 98.7821L34.5082 97.4936L39.1803 94.4466L39.1812 94.4173L34.6031 94.2821L34.6465 92.813L41.6893 93.021L41.6515 94.2997L36.945 97.3555L36.9442 97.3848L41.5564 97.521L41.513 98.9901Z" fill="white"/>
</svg>

<svg width="196" height="196" fill="none" xmlns="http://www.w3.org/2000/svg"><path d="M41.671 85.704c-.347 1.638-1.321 2.535-2.61 2.346l-.077-.011.29-1.361.054.001c.554.023 1.009-.475 1.176-1.263.17-.797-.073-1.373-.598-1.484l-.005-.001c-.468-.1-.774.19-1.132 1.007l-.298.696c-.56 1.304-1.356 1.854-2.393 1.634l-.005-.001c-1.26-.268-1.859-1.543-1.534-3.071.338-1.596 1.343-2.406 2.566-2.216l.092.014-.289 1.362-.058-.008c-.555-.043-.99.384-1.141 1.096-.152.742.092 1.258.584 1.362l.005.001c.435.092.763-.207 1.089-.967l.303-.7c.593-1.381 1.318-1.906 2.402-1.676h.005c1.323.282 1.943 1.501 1.574 3.24ZM45.917 76.37c-.78 1.907-2.545 2.583-4.646 1.723l-.005-.002c-2.1-.86-2.874-2.58-2.095-4.483.647-1.581 2.11-2.307 3.545-1.867l.042.012-.544 1.329-.084-.014c-.781-.14-1.47.2-1.802 1.014-.428 1.044.139 2.057 1.504 2.615l.004.002c1.374.563 2.497.242 2.925-.802.321-.787.095-1.523-.605-2.015l-.042-.028.544-1.329.048.025c1.335.695 1.857 2.243 1.211 3.82ZM49.172 69.43l-5.94-3.791 1.566-2.453c.852-1.334 2.064-1.672 3.258-.91l.008.005c.782.499 1.167 1.33 1.006 2.154l3.136.24-.898 1.408-2.86-.266-.635.996 2.152 1.373-.793 1.243ZM46.87 66.21l.686-1.074c.394-.618.28-1.211-.304-1.584l-.008-.006c-.568-.362-1.18-.202-1.571.41l-.675 1.059 1.872 1.195ZM56.857 59.418c-1.424 1.537-3.338 1.54-4.982.016l-.007-.007c-1.643-1.523-1.774-3.436-.357-4.965 1.42-1.533 3.338-1.54 4.978-.019l.007.007c1.644 1.523 1.785 3.432.361 4.968Zm-.917-.85c.797-.859.605-2.023-.466-3.015l-.007-.007c-1.078-1-2.252-1.083-3.04-.234-.783.845-.618 2.01.464 3.013l.007.006c1.081 1.003 2.256 1.086 3.042.237ZM62.561 53.957l-4.228-5.636 1.18-.885 3.498 4.663 2.464-1.849.73.973-3.644 2.734ZM70.925 48.421l-3.154-6.3 1.318-.66 2.61 5.213 2.755-1.38.545 1.088-4.074 2.04ZM88.73 42.35l-.74-7.007 2.675-.283c2.098-.221 3.473.896 3.707 3.115l.001.01c.235 2.224-.866 3.66-2.968 3.882l-2.676.283Zm1.337-1.37 1.035-.108c1.31-.139 1.936-1.01 1.776-2.525l-.001-.01c-.154-1.461-.972-2.185-2.259-2.05l-1.034.11.483 4.584ZM102.051 42.042c-2.089-.156-3.285-1.65-3.118-3.885v-.01c.167-2.235 1.581-3.53 3.66-3.375 2.084.155 3.285 1.65 3.119 3.88l-.001.01c-.167 2.235-1.571 3.536-3.66 3.38Zm.093-1.247c1.169.087 1.959-.789 2.067-2.245l.001-.01c.109-1.465-.558-2.435-1.712-2.521-1.149-.086-1.957.77-2.067 2.24v.01c-.11 1.47.557 2.44 1.711 2.526ZM109.273 42.94l-.036-7.29 1.48.385-.191 5.166.028.008 2.526-4.561 1.252.325-.011 5.213.029.008 2.35-4.607 1.48.384-3.581 6.35-1.394-.361-.066-4.896-.029-.007-2.443 4.244-1.394-.362ZM118.269 45.651l2.959-6.394 1.17.541.966 5.494.026.012 1.924-4.157 1.334.618-2.96 6.394-1.161-.537-.96-5.529-.026-.012-1.938 4.187-1.334-.617ZM137.228 58.48c-1.176-1.193-1.388-2.5-.521-3.47l.052-.059.977.991-.031.045c-.325.45-.16 1.104.405 1.677.573.581 1.187.696 1.569.319l.004-.004c.34-.336.267-.75-.218-1.5l-.416-.631c-.779-1.186-.8-2.153-.045-2.897l.003-.004c.918-.905 2.311-.702 3.408.411 1.145 1.162 1.268 2.447.436 3.363l-.063.068-.977-.99.039-.045c.341-.44.224-1.038-.286-1.556-.535-.535-1.101-.615-1.459-.262l-.004.003c-.316.312-.247.751.208 1.441l.417.639c.826 1.255.865 2.15.075 2.928l-.003.004c-.963.95-2.322.794-3.57-.471ZM143.672 66.333c-1.161-1.702-.753-3.547 1.122-4.827l.004-.002c1.876-1.28 3.737-.978 4.896.72.963 1.412.762 3.032-.395 3.987l-.033.03-.809-1.187.057-.063c.548-.574.643-1.337.147-2.063-.636-.931-1.793-1.016-3.011-.185l-.004.003c-1.226.836-1.577 1.95-.941 2.882.478.702 1.218.919 2.015.606l.045-.02.81 1.186-.048.026c-1.315.732-2.894.315-3.855-1.093ZM147.672 72.873l6.435-2.869 1.185 2.658c.644 1.445.259 2.643-1.035 3.22l-.009.004c-.847.378-1.753.241-2.352-.347l-1.929 2.485-.679-1.525 1.797-2.24-.481-1.08-2.332 1.04-.6-1.346Zm3.954-.148.519 1.164c.298.669.856.901 1.489.619l.009-.004c.615-.274.819-.873.523-1.538l-.511-1.146-2.029.905ZM151.793 84.802c-.497-2.035.554-3.635 2.731-4.167l.01-.002c2.177-.532 3.845.412 4.341 2.437.496 2.03-.555 3.634-2.727 4.165l-.01.003c-2.177.532-3.848-.402-4.345-2.436Zm1.214-.297c.279 1.138 1.356 1.619 2.774 1.272l.01-.002c1.427-.35 2.144-1.284 1.869-2.408-.273-1.12-1.337-1.623-2.769-1.273l-.01.002c-1.432.35-2.149 1.284-1.874 2.409ZM153.209 92.57l7.033-.423.089 1.472-5.82.35.186 3.076-1.214.073-.274-4.547ZM153.221 102.601l6.996.838-.176 1.464-5.788-.694-.367 3.06-1.207-.145.542-4.523ZM148.48 120.804l6.255 3.243-1.238 2.389c-.971 1.873-2.661 2.405-4.642 1.378l-.008-.005c-1.986-1.029-2.579-2.739-1.605-4.616l1.238-2.389Zm.405 1.871-.479.924c-.607 1.17-.224 2.171 1.129 2.873l.008.004c1.305.677 2.36.393 2.955-.756l.479-.923-4.092-2.122ZM141.398 132.092c1.28-1.658 3.186-1.832 4.96-.462l.007.006c1.774 1.37 2.076 3.263.801 4.913-1.278 1.654-3.187 1.833-4.956.465l-.008-.006c-1.773-1.37-2.085-3.258-.804-4.916Zm.989.764c-.717.928-.421 2.07.735 2.962l.007.006c1.163.899 2.341.877 3.048-.039.705-.912.436-2.057-.731-2.959l-.008-.006c-1.167-.902-2.344-.879-3.051.036ZM136.67 137.625l6.103 3.985-1.136 1.024-4.207-3.006-.021.02 2.415 4.62-.962.866-4.344-2.881-.022.019 2.549 4.5-1.135 1.023-3.328-6.486 1.07-.965 4.122 2.642.022-.02-2.196-4.377 1.07-.964ZM129.451 143.639l3.707 5.992-1.097.678-5.116-2.221-.025.016 2.409 3.895-1.25.773-3.706-5.992 1.088-.673 5.143 2.244.025-.015-2.428-3.924 1.25-.773ZM108.3 152.394c1.643-.325 2.85.219 3.183 1.477l.02.075-1.365.27-.02-.051c-.197-.518-.833-.741-1.623-.585-.8.158-1.234.607-1.13 1.134v.004c.093.47.48.637 1.372.645h.757c1.419.004 2.237.519 2.442 1.559l.001.005c.25 1.264-.687 2.315-2.22 2.618-1.6.316-2.74-.29-3.046-1.489l-.023-.09 1.365-.27.016.057c.179.527.742.759 1.456.618.742-.151 1.12-.579 1.023-1.073l-.001-.004c-.086-.436-.491-.62-1.317-.621l-.763-.004c-1.503-.002-2.271-.463-2.486-1.55v-.005c-.262-1.327.616-2.376 2.359-2.72ZM98.196 153.446c2.06-.032 3.375 1.325 3.41 3.595v.005c.035 2.27-1.242 3.657-3.298 3.689-1.709.026-2.95-1.034-3.11-2.526l-.006-.044 1.436-.022.02.083c.178.774.762 1.273 1.64 1.259 1.129-.017 1.837-.936 1.815-2.411v-.005c-.023-1.484-.76-2.391-1.888-2.373-.85.013-1.437.51-1.615 1.348l-.009.049-1.435.022.004-.054c.114-1.501 1.332-2.589 3.036-2.615ZM90.535 153.181l-1.151 6.951-2.872-.475c-1.56-.259-2.348-1.241-2.117-2.638l.002-.009c.152-.916.764-1.596 1.585-1.772l-1.01-2.979 1.647.273.878 2.734 1.166.193.417-2.519 1.455.241Zm-2.055 3.382-1.257-.209c-.723-.119-1.224.218-1.338.902l-.001.01c-.11.665.277 1.164.995 1.283l1.238.205.363-2.191ZM78.309 150.049c1.972.706 2.727 2.465 1.972 4.575l-.003.009c-.755 2.11-2.463 2.982-4.425 2.28-1.968-.704-2.728-2.465-1.974-4.57l.003-.01c.755-2.11 2.455-2.99 4.427-2.284Zm-.421 1.177c-1.104-.395-2.098.24-2.59 1.614l-.004.009c-.495 1.384-.11 2.497.98 2.887 1.085.388 2.091-.221 2.588-1.61l.003-.009c.497-1.388.112-2.501-.977-2.891ZM71.045 146.951l-3.52 6.103-1.278-.737 2.913-5.05-2.669-1.54.608-1.053 3.946 2.277ZM62.668 141.435l-4.554 5.377-1.125-.953 3.768-4.449-2.352-1.991.786-.928 3.477 2.944ZM50.087 127.45l-6.152 3.434-1.312-2.349c-1.027-1.842-.54-3.545 1.408-4.633l.008-.005c1.953-1.089 3.707-.642 4.737 1.204l1.311 2.349Zm-1.784-.692-.507-.909c-.643-1.151-1.69-1.383-3.02-.641l-.008.005c-1.284.716-1.628 1.753-.997 2.883l.507.908 4.025-2.246ZM44.568 115.321c.678 1.982-.226 3.669-2.346 4.394l-.01.004c-2.12.725-3.867-.066-4.541-2.039-.677-1.977.226-3.669 2.342-4.393l.01-.003c2.12-.725 3.868.055 4.545 2.037Zm-1.182.405c-.38-1.109-1.496-1.491-2.877-1.019l-.01.003c-1.39.476-2.02 1.471-1.646 2.566.373 1.09 1.477 1.497 2.873 1.02l.009-.004c1.395-.477 2.025-1.471 1.65-2.566ZM42.555 108.328l-6.688 2.897-.228-1.511 4.825-1.855-.004-.029-5.186-.53-.194-1.279 4.799-2.039-.005-.029-5.16-.351-.227-1.511 7.246.796.215 1.424-4.475 1.985.004.029 4.863.579.215 1.424ZM41.513 98.99l-7.043-.208.038-1.288 4.672-3.047.001-.03-4.578-.135.044-1.469 7.042.208-.038 1.279-4.706 3.056v.029l4.611.136-.043 1.47Z" fill="#fff"/></svg>
